X:1
T:Title
%%score { ( 1 4 ) | ( 2 3 ) }
L:1/8
M:6/8
K:Eb
V:1 treble nm="Grand Piano"
V:4 treble 
V:2 bass 
V:3 bass 
V:1
 z3 z2[Q:1/4=81] B | BE[CEA] [B,EG]2 [B,DF] | [B,EG]3- [B,EG]2 [B,EG] | [A,EA]2 [Ec] [EB]2 [EG] | %4
 [DF]3- [DF]2 [DF] | G2 G A2 A | B2 _d [Ec]2 [Ec] | [EB]E[CEA] [B,EG]2 [A,DF] | %8
[M:5/8] [G,E]-[G,E]- [G,E]3 |[M:1/8] [B,EG] |[M:3/4] [FA]2 [FA] [FA]2 [DB] | [EG]4- [EG][EG] | %12
 [=EG]2 [Ec] [CEG]2 [CGB] | [CFA]4- [CFA][CFA] | [FAd]2 [EAc] [DFB]2 D | E2 F G2 [Ec] | %16
 [EB]E [CEA] [B,EG]2 [A,DF] |[M:5/8] E-E- E3 |[M:1/8] B |[M:3/4] BG cB Ge | [Ad]4- [Ad][FA] | %21
 [FA][DF] [GB][FA] [DF][Dc] | B4- BE | z G [EGB] [Ge]2 B | d2 c c2 e | eB G [DG]2 [DF] | %26
[M:5/8] E-E- E3 |] %27
V:2
 z3 z2 [E,G,E] | .[E,G,E]2 A,, B,,2 B,, | E,3- E,2 _D, | C,2 [A,,A,] [E,G,]2 [E,B,] | %4
 [B,,B,]3- [B,,B,]2 [B,,B,] | [E,B,E]2 [E,B,E] [F,B,D]2 [F,B,D] | %6
 [G,B,E]2 [G,,B,E] [A,,A,]2 [A,,A,] | .G,3 z3 |[M:5/8] E,-E,- E,3 |[M:1/8] E, | %10
[M:3/4] [B,,B,]2 [B,,B,] [B,,B,]2 [B,,B,] | [E,B,]4- [E,B,][E,B,] | [C,C]2 [C,G,] C,2 =E, | %13
 F,4- F,F, | B,,2 B,, B,,2 [B,,A,B,] | [C,G,B,]2 [D,F,B,] [E,B,]2 [A,,A,] | G,2 z2 z2 | %17
[M:5/8] [E,G,]-[E,G,]- [E,G,]3 |[M:1/8] [E,G,E] | %19
[M:3/4] [E,E]-[E,B,E] [E,A,E][E,E]- [E,B,E][G,B,E] | [F,B,]4- [F,B,][B,,B,] | %21
 [B,,B,]2 [B,,B,] [B,,B,]2 [B,,A,] | [E,G,E]4- [E,G,E][E,G,] | E,-[E,B,] E, [E,B,]2 [E,G,E] | %24
 [A,B,E]2 [A,E] [A,E]2 [=A,CF] | [B,G]2[K:bass] [B,E] [B,,B,]2 [B,,A,] | %26
[M:5/8] [E,G,]-[E,G,]- [E,G,]3 |] %27
V:3
 x6 | x6 | x6 | x6 | x6 | x6 | x6 | B,,C,A,, B,,2 B,, |[M:5/8] x5 |[M:1/8] x |[M:3/4] x6 | x6 | %12
 x6 | x6 | x6 | x6 | B,,C, A,, B,,2 B,, |[M:5/8] x5 |[M:1/8] x |[M:3/4] .G,2 z G, z2 | x6 | x6 | %22
 x6 | .G,2 z2 z2 | x6 | x2[K:bass] x4 |[M:5/8] x5 |] %27
V:4
 x6 | x6 | x6 | x6 | x6 | x6 | x6 | x6 |[M:5/8] x5 |[M:1/8] x |[M:3/4] x6 | x6 | x6 | x6 | x6 | %15
 x6 | x6 |[M:5/8] x5 |[M:1/8] x |[M:3/4] x6 | x6 | x6 | x6 | E2 z2 z2 | x6 | x6 |[M:5/8] x5 |] %27

